X:1661
T: Piha Patcha Bechochma
O: Israel
C: Yosef Vald 2009
F: https://www.youtube.com/watch?v=3IE_76e4zEY
F: https://www.youtube.com/watch?v=91DLF6LJZ7g
F: https://www.youtube.com/watch?v=CoDx0kjPhEk
M: 3/4
L: 1/4
K: Bm
Q: 1/4=150
%%MIDI program 24 Acoustic Guitar
P:A
F E F|G F E|E F G|F3|F E F|G A B|F3-|F3|
F E F|d c B|c B A|G3|G A B|F3|F/E/ D C|B,3|
P:B
B F B|A E A|G G A|B3|B F B|c A c|d3 | c3|
B F B|c A c|d e f|e3|d c B|A e c|d/c/ B2-|B3|


